X: 1
P: Miss Anne's Jig
C: Barbara McOwen, c1984
L: 1/8
M: 6/8
R: Jig
K: D
c | "Bm"B2 B BFB | "Bm"BFB d2 c | "Bm"BFB "E"Bcd | "A"cBA e2 c |"Bm"B2 B BFB | "Bm"BFB "G"d2 e | "Bm"fg"F#"f fed | "Bm"f2 B B2 :| g |
 "Bm"fBB fgf | "Bm"fBB fgf | "A"eAA ecc | "A"eAA "F#"efg |"Bm"fBB fgf | "G"fAA "F#m"f2 g | "Em"agf "F#"edc | "Bm"f2 B B2 ||g |
 "Bm"fBB fgf | "Bm"fBB "E"fgf | "A"eAA ecc | "A"eAA edc |"Bm"dcB "A"edc | "G"fed "Em"g2 e | "Bm"fgf "F#"fed | "Bm"f2 B B2 |]
